src/svg/fast-forward.svg

<svg height="1000" width="1000.0" xmlns="http://www.w3.org/2000/svg">
    <path d="m1000 148.4v703.2c0 12.9-10.5 23.4-23.4 23.4h-78.2c-12.9 0-23.4-10.5-23.4-23.4v-296.7l-335 305.6c-40.2 33.6-102.5 5.5-102.5-48v-257.6l-335 305.6c-40.2 33.6-102.5 5.5-102.5-48v-625c0-53.5 62.3-81.4 102.5-48l335 303.5v-255.5c0-53.5 62.3-81.4 102.5-48l335 303.5v-294.6c0-12.9 10.5-23.4 23.4-23.4h78.2c12.9 0 23.4 10.5 23.4 23.4z" />
  </svg>

<svg height="1000" width="1000" xmlns="http://www.w3.org/2000/svg"><path d="M1000 148.4v703.2c0 12.9 -10.5 23.4 -23.4 23.4h-78.2C885.5 875 875 864.5 875 851.6V554.9L540 860.5c-40.2 33.6 -102.5 5.5 -102.5 -48V554.9l-335 305.6C62.3 894.1 0 866 0 812.5v-625c0 -53.5 62.3 -81.4 102.5 -48l335 303.5V187.5c0 -53.5 62.3 -81.4 102.5 -48L875 443V148.4c0 -12.9 10.5 -23.4 23.4 -23.4h78.2c12.9 0 23.4 10.5 23.4 23.4z"/></svg>
